X:1
L:1/8
M:6/8
K:Ddor
|: A,B,^C |""Dm"" D3 FED | F3 A^GF | A2 B cBA | Bcd cBA | B c2- c2 c | Bcd cBA | ^G A2- A2 G | 
 A^GF FED |""Dm"" D3 FED | F3 A^GF | A2 B cBA | Bcd cBA | ^GAB cBA | A^GF FED | D6- | D3 :: A,DF | 
""Dm"" A2 A A2 A | A2 B cBA | ^GBA- A3- | A6 | ^GAB cBA | A^GF FED | ^GBA- A3- | A6 |""Dm"" ^GAB cBA | 
 A^GF FED | E=GF- F3- | F6 | EF^G AGF | A^GF FED | EFD- D3- | D3 :|
